src/assets/img/providers-white/turbogames.svg

<svg width="90" height="26" viewBox="0 0 90 26" fill="none" xmlns="http://www.w3.org/2000/svg">
<g clip-path="url(#clip0_4416_8620)">
<path fill-rule="evenodd" clip-rule="evenodd" d="M0.289734 12.758C0.289734 5.71126 6.00001 0.000976562 13.0467 0.000976562C20.0935 0.000976562 25.8037 5.71126 25.8037 12.758C25.8037 19.8047 20.0935 25.515 13.0467 25.515C6.00001 25.515 0.289734 19.8047 0.289734 12.758ZM18.9028 22.1617L22.5234 18.5412C23.0337 18.0309 23.0337 17.229 22.5234 16.7187L18.4411 12.6365L22.5234 8.55425C23.0337 8.04397 23.0337 7.2421 22.5234 6.73182L18.9028 3.11126C18.3925 2.60098 17.5907 2.60098 17.0804 3.11126L12.9981 7.1935L8.9159 3.11126C8.40562 2.60098 7.60375 2.60098 7.09347 3.11126L3.47291 6.73182C2.96263 7.2421 2.96263 8.04397 3.47291 8.55425L7.55515 12.6365L3.47291 16.7187C2.96263 17.229 2.96263 18.0309 3.47291 18.5412L7.09347 22.1617C7.60375 22.672 8.40562 22.672 8.9159 22.1617L12.9981 18.0795L17.0804 22.1617C17.5907 22.672 18.3925 22.672 18.9028 22.1617ZM77.5608 6.07574C77.5608 2.72247 80.2823 0.000976562 83.6355 0.000976562C86.9888 0.000976562 89.7103 2.72247 89.7103 6.07574C89.7103 9.42901 86.9888 12.1505 83.6355 12.1505C80.2823 12.1505 77.5608 9.42901 77.5608 6.07574ZM86.4299 7.82528C86.5757 7.67948 86.5757 7.43649 86.4299 7.2907L85.2393 6.10004L86.4299 4.90939C86.5757 4.76359 86.5757 4.5206 86.4299 4.37481L85.3608 3.30565C85.215 3.15985 84.972 3.15985 84.8262 3.30565L83.6355 4.4963L82.4449 3.30565C82.2991 3.15985 82.0561 3.15985 81.9103 3.30565L80.8411 4.37481C80.6953 4.5206 80.6953 4.76359 80.8411 4.90939L82.0318 6.10004L80.8411 7.2907C80.6953 7.43649 80.6953 7.67948 80.8411 7.82528L81.9103 8.89443C82.0561 9.04023 82.2991 9.04023 82.4449 8.89443L83.6355 7.70378L84.8262 8.89443C84.972 9.04023 85.215 9.04023 85.3608 8.89443L86.4299 7.82528ZM45.5832 15.0664H48.9851C49.1308 15.0664 49.2766 15.1636 49.3252 15.3094L53.1159 25.4421C53.2131 25.6851 53.0187 25.9281 52.7757 25.9281H49.6168C49.471 25.9281 49.3252 25.8309 49.2766 25.6851L48.9608 24.8103C48.9122 24.6645 48.7664 24.5673 48.6206 24.5673H45.9477C45.8019 24.5673 45.6561 24.6645 45.6075 24.8103L45.2916 25.6851C45.243 25.8309 45.0972 25.9281 44.9514 25.9281H41.8168C41.5738 25.9281 41.3794 25.6851 41.4766 25.4421L45.243 15.2851C45.2916 15.1636 45.4374 15.0664 45.5832 15.0664ZM48.0131 22.0888C48.2561 22.0888 48.4262 21.8458 48.3533 21.6271L47.3084 18.3954H47.2355L46.215 21.6271C46.1421 21.8701 46.3122 22.0888 46.5551 22.0888H48.0131ZM57.2224 15.0664H54.7196C54.5009 15.0664 54.3552 15.2122 54.3552 15.4309V25.5636C54.3552 25.758 54.5252 25.9281 54.7196 25.9281H57.6355C57.8299 25.9281 58 25.758 58 25.5636V23.4253L57.9757 21.1898L58.0243 21.1655L59.628 23.3767C59.7009 23.4739 59.7981 23.5225 59.9196 23.5225H61.6206C61.7421 23.5225 61.8393 23.4739 61.9122 23.3767L63.5159 21.1898H63.5645L63.5402 23.4253V25.5636C63.5402 25.758 63.7103 25.9281 63.9047 25.9281H66.8449C67.0393 25.9281 67.2094 25.758 67.2094 25.5636V15.4309C67.2094 15.2365 67.0393 15.0664 66.8449 15.0664H64.3664C64.2449 15.0664 64.1477 15.115 64.0748 15.2122L61.086 19.2458C60.9402 19.4402 60.6486 19.4402 60.5028 19.2458L57.514 15.2122C57.4411 15.115 57.3439 15.0664 57.2224 15.0664ZM86.1383 19.3672H82.6636C82.6636 19.3672 81.9103 19.4158 81.9103 18.7597C81.9103 18.1036 82.6636 18.1036 82.6636 18.1036H89.3458C89.5402 18.1036 89.7103 17.9335 89.7103 17.7392V15.4064C89.7103 15.212 89.5402 15.042 89.3458 15.042H82.4449C80.671 15.042 78.8486 15.042 78.8486 18.6382C78.8486 21.6451 80.3406 21.6266 81.9851 21.6061H81.9852H81.9852H81.9853C82.1215 21.6044 82.2588 21.6027 82.3963 21.6027H85.871C85.871 21.6027 86.6486 21.6027 86.6486 22.2102C86.6486 22.8177 85.8953 22.842 85.8953 22.842H77.172H77.1477H71.486V21.9672C71.486 21.7728 71.6561 21.6027 71.8505 21.6027H75.3495C75.5439 21.6027 75.714 21.4326 75.714 21.2382V19.6831C75.714 19.4887 75.5439 19.3186 75.3495 19.3186H71.486V18.4681C71.486 18.2737 71.6561 18.1036 71.8505 18.1036H77.1477C77.3421 18.1036 77.5122 17.9335 77.5122 17.7392V15.4064C77.5122 15.212 77.3421 15.042 77.1477 15.042H68.8131C68.6187 15.042 68.4486 15.212 68.4486 15.4064V25.5392C68.4486 25.7336 68.6187 25.9037 68.8131 25.9037H86.114C87.9608 25.9037 89.686 25.9037 89.686 22.3074C89.7084 19.323 88.1353 19.3432 86.5357 19.3638L86.5354 19.3638C86.4029 19.3655 86.2703 19.3672 86.1383 19.3672ZM59.3851 8.48149L61.4262 11.8834C61.5234 12.0535 61.6692 12.1264 61.8393 12.1264H64.9009C65.2897 12.1264 65.5327 11.7133 65.3383 11.3974L63.2729 7.80112C63.2486 7.77682 63.2729 7.72822 63.2972 7.70392C64.6094 6.95065 65.2654 5.54131 65.2654 4.13196C65.2654 2.09084 63.8561 0.025418 61.0617 0.025418H54.1122C53.8449 0.025418 53.6262 0.24411 53.6262 0.5114V11.6161C53.6262 11.8834 53.8449 12.1021 54.1122 12.1021H56.9066C57.1738 12.1021 57.3925 11.8834 57.3925 11.6161V8.72448C57.3925 8.45719 57.6112 8.2385 57.8785 8.2385H58.972C59.1421 8.2385 59.2879 8.3357 59.3851 8.48149ZM57.4411 5.44411C57.4168 5.44411 57.3925 5.41981 57.3925 5.39551V3.30579C57.3925 3.0385 57.6112 2.81981 57.8785 2.81981H60.1869C61.1103 2.81981 61.572 3.47589 61.572 4.13196C61.572 4.78803 61.1103 5.44411 60.1869 5.44411H57.4411ZM75.714 5.90565C75.7 5.89168 75.6941 5.88574 75.6916 5.87859C75.6897 5.87331 75.6897 5.86738 75.6897 5.85705C75.6897 5.83275 75.6897 5.83275 75.714 5.80845C76.2972 5.20098 76.6374 4.22901 76.6374 3.25705C76.6374 0.997238 75.1794 0.000976562 73.7215 0.000976562H67.0392C66.6991 0.000976562 66.4318 0.268266 66.4318 0.608453V11.543C66.4318 11.8832 66.6991 12.1505 67.0392 12.1505H73.7215C75.9327 12.1505 76.929 10.3524 76.929 8.70004C76.929 7.55799 76.4673 6.53742 75.714 5.90565ZM72.4093 5.10378H69.785V3.13556C69.785 2.94116 69.9551 2.77107 70.1495 2.77107H72.4093C73.2598 2.77107 73.6486 3.35425 73.6486 3.93743C73.6486 4.5206 73.2598 5.10378 72.4093 5.10378ZM70.1495 7.2421H72.4093C73.2598 7.2421 73.6486 7.82527 73.6486 8.40845C73.6486 8.96733 73.2598 9.57481 72.4093 9.57481H69.785V7.60658C69.785 7.41219 69.9551 7.2421 70.1495 7.2421ZM36.4954 19.416H40.4318C40.7477 19.416 40.9907 19.659 41.015 20.0235C41.015 20.0235 41.0393 23.9842 41.015 24.0328C40.8449 24.4701 38.5608 25.9524 37.0785 25.9524H36.9084H35.8393C34.7498 25.9524 33.9508 25.9379 33.588 25.9313C33.4815 25.9293 33.4127 25.9281 33.3851 25.9281C30.5907 25.7094 28.9869 23.7412 28.9869 20.558V20.5337C28.9869 17.6421 31.1253 15.358 34.0898 15.1393C34.187 15.115 38.658 15.115 40.3103 15.115C40.5533 15.115 40.772 15.3094 40.772 15.5767V17.5449C40.772 17.7879 40.5776 18.0066 40.3103 18.0066C38.6823 17.9823 34.3813 18.0066 34.1141 18.0795C32.9963 18.3954 32.2673 19.3674 32.2673 20.5337V20.558C32.2673 21.9188 33.0935 22.9636 34.2113 23.0365C34.7458 23.0608 35.329 23.0851 36.4711 23.0851H36.544C37.0785 23.0851 37.4916 22.9879 37.8561 22.7935C37.8804 22.7692 37.9047 22.7206 37.9047 22.6964V21.9917C37.9047 21.9431 37.8561 21.8945 37.8075 21.8945H36.4954C36.1795 21.8945 35.9365 21.6515 35.9365 21.3356V19.9749C35.9365 19.659 36.1795 19.416 36.4954 19.416ZM38.9252 0.000976562H29.6673C29.4 0.000976562 29.1813 0.219668 29.1813 0.486958V3.25705C29.1813 3.52434 29.4 3.74303 29.6673 3.74303H31.9271C32.1944 3.74303 32.4131 3.96172 32.4131 4.22901V11.6645C32.4131 11.9318 32.6318 12.1505 32.8991 12.1505H35.6691C35.9364 12.1505 36.1551 11.9318 36.1551 11.6645V4.25331C36.1551 3.98602 36.3738 3.76733 36.6411 3.76733H38.9009C39.1682 3.76733 39.3869 3.54864 39.3869 3.28135V0.486958C39.4112 0.219668 39.1925 0.000976562 38.9252 0.000976562ZM48.572 0.5114C48.572 0.24411 48.7907 0.025418 49.058 0.025418H51.8766C52.1439 0.025418 52.3626 0.24411 52.3626 0.5114V8.43289C52.3626 9.69645 52.0467 10.6441 51.4393 11.2516C50.8318 11.8348 49.8355 12.1507 48.5234 12.1507H44.4654C43.1533 12.1507 42.157 11.8591 41.5495 11.2516C40.9421 10.6684 40.6262 9.72075 40.6262 8.43289V0.5114C40.6262 0.24411 40.8449 0.025418 41.1122 0.025418H43.9795C44.2467 0.025418 44.4654 0.24411 44.4654 0.5114V7.94691C44.4654 8.45719 44.6598 8.65159 45.1944 8.65159H47.843C48.3776 8.65159 48.572 8.45719 48.572 7.94691V0.5114Z" fill="white"/>
</g>
<defs>
<clipPath id="clip0_4416_8620">
<rect width="89.4206" height="26" fill="white" transform="translate(0.289734 0.000976562)"/>
</clipPath>
</defs>
</svg>

<svg xmlns="http://www.w3.org/2000/svg" width="90" height="26" fill="none"><g clip-path="url(#a)"><path fill="#fff" fill-rule="evenodd" d="M.29 12.758C.29 5.711 6 .001 13.047.001c7.046 0 12.757 5.71 12.757 12.757s-5.71 12.757-12.757 12.757S.29 19.805.29 12.758Zm18.613 9.404 3.62-3.62c.51-.511.51-1.313 0-1.823l-4.082-4.083 4.082-4.082c.51-.51.51-1.312 0-1.822l-3.62-3.62a1.276 1.276 0 0 0-1.823 0l-4.082 4.082L8.916 3.11a1.276 1.276 0 0 0-1.823 0l-3.62 3.62c-.51.511-.51 1.313 0 1.823l4.082 4.082-4.082 4.083c-.51.51-.51 1.312 0 1.822l3.62 3.62c.51.511 1.313.511 1.823 0l4.082-4.082 4.082 4.083c.51.51 1.313.51 1.823 0ZM77.56 6.076A6.077 6.077 0 0 1 83.635 0a6.077 6.077 0 0 1 6.075 6.075 6.077 6.077 0 0 1-6.075 6.074 6.077 6.077 0 0 1-6.074-6.074Zm8.869 1.75a.381.381 0 0 0 0-.535L85.24 6.1l1.19-1.19a.381.381 0 0 0 0-.535l-1.07-1.07a.381.381 0 0 0-.534 0l-1.19 1.191-1.191-1.19a.381.381 0 0 0-.535 0l-1.069 1.069a.381.381 0 0 0 0 .534l1.19 1.191-1.19 1.19a.381.381 0 0 0 0 .535l1.07 1.07a.381.381 0 0 0 .534 0l1.19-1.191 1.191 1.19a.381.381 0 0 0 .535 0l1.069-1.069Zm-40.847 7.24h3.402c.146 0 .292.098.34.243l3.79 10.133c.098.243-.096.486-.34.486h-3.158a.365.365 0 0 1-.34-.243l-.316-.875a.365.365 0 0 0-.34-.243h-2.673a.365.365 0 0 0-.34.243l-.316.875a.365.365 0 0 1-.34.243h-3.135c-.243 0-.438-.243-.34-.486l3.766-10.157a.381.381 0 0 1 .34-.219Zm2.43 7.023a.357.357 0 0 0 .34-.462l-1.045-3.232h-.072l-1.021 3.232a.35.35 0 0 0 .34.462h1.458Zm9.21-7.023H54.72c-.22 0-.365.146-.365.365v10.133c0 .194.17.364.365.364h2.916c.194 0 .364-.17.364-.364v-2.139l-.024-2.235.048-.024 1.604 2.21c.073.098.17.146.292.146h1.7a.346.346 0 0 0 .292-.145l1.604-2.187h.049l-.025 2.235v2.139c0 .194.17.364.365.364h2.94c.194 0 .364-.17.364-.364V15.43a.374.374 0 0 0-.364-.365h-2.479a.346.346 0 0 0-.291.146l-2.989 4.034a.364.364 0 0 1-.583 0l-2.989-4.034a.346.346 0 0 0-.292-.146Zm28.915 4.301h-3.474s-.754.049-.754-.607.754-.656.754-.656h6.682c.194 0 .364-.17.364-.365v-2.333a.374.374 0 0 0-.364-.364h-6.901c-1.774 0-3.596 0-3.596 3.596 0 3.007 1.492 2.989 3.136 2.968.136-.002.274-.003.411-.003h3.475s.778 0 .778.607c0 .608-.754.632-.754.632H71.486v-.875c0-.194.17-.364.364-.364h3.5c.194 0 .364-.17.364-.365v-1.555a.374.374 0 0 0-.364-.364h-3.864v-.85c0-.195.17-.365.364-.365h5.298c.194 0 .364-.17.364-.365v-2.333a.374.374 0 0 0-.364-.364h-8.335a.374.374 0 0 0-.364.364V25.54c0 .195.17.365.364.365h17.301c1.847 0 3.572 0 3.572-3.597.022-2.984-1.55-2.964-3.15-2.943l-.398.003ZM59.385 8.481l2.041 3.402c.097.17.243.243.413.243h3.062c.389 0 .632-.413.437-.729l-2.065-3.596c-.024-.024 0-.073.024-.097 1.312-.753 1.968-2.163 1.968-3.572 0-2.041-1.409-4.107-4.203-4.107h-6.95a.487.487 0 0 0-.486.486v11.105c0 .267.219.486.486.486h2.795a.487.487 0 0 0 .486-.486V8.724c0-.267.218-.486.486-.486h1.093c.17 0 .316.098.413.243Zm-1.944-3.037a.052.052 0 0 1-.049-.048v-2.09c0-.268.22-.486.486-.486h2.309c.923 0 1.385.656 1.385 1.312s-.462 1.312-1.385 1.312H57.44Zm18.273.462c-.014-.014-.02-.02-.022-.027-.002-.006-.002-.012-.002-.022 0-.024 0-.024.024-.049.583-.607.923-1.579.923-2.551 0-2.26-1.458-3.256-2.915-3.256h-6.683a.602.602 0 0 0-.607.607v10.935c0 .34.267.607.607.607h6.683c2.21 0 3.207-1.798 3.207-3.45 0-1.142-.462-2.163-1.215-2.794Zm-3.305-.802h-2.624V3.136c0-.195.17-.365.365-.365h2.26c.85 0 1.239.583 1.239 1.166 0 .584-.39 1.167-1.24 1.167Zm-2.26 2.138h2.26c.85 0 1.24.583 1.24 1.166 0 .56-.39 1.167-1.24 1.167h-2.624V7.607c0-.195.17-.365.365-.365ZM36.495 19.416h3.937c.316 0 .559.243.583.607 0 0 .024 3.961 0 4.01-.17.437-2.454 1.92-3.937 1.92H35.84a118.614 118.614 0 0 1-2.454-.025c-2.794-.219-4.398-2.187-4.398-5.37v-.024c0-2.892 2.138-5.176 5.103-5.395.097-.024 4.568-.024 6.22-.024.243 0 .462.194.462.462v1.968a.461.461 0 0 1-.462.462c-1.628-.025-5.929 0-6.196.072-1.118.316-1.847 1.288-1.847 2.455v.024c0 1.36.826 2.406 1.944 2.479.535.024 1.118.048 2.26.048h.073c.535 0 .948-.097 1.312-.291a.184.184 0 0 0 .049-.098v-.704a.105.105 0 0 0-.098-.098h-1.312a.55.55 0 0 1-.558-.558v-1.361a.55.55 0 0 1 .558-.559ZM38.925.001h-9.258a.487.487 0 0 0-.486.486v2.77c0 .267.219.486.486.486h2.26c.267 0 .486.219.486.486v7.436c0 .267.219.486.486.486h2.77a.487.487 0 0 0 .486-.486V4.253c0-.267.219-.486.486-.486h2.26a.487.487 0 0 0 .486-.486V.487a.453.453 0 0 0-.462-.486Zm9.647.51c0-.267.219-.486.486-.486h2.819c.267 0 .486.22.486.486v7.922c0 1.263-.316 2.211-.924 2.819-.607.583-1.603.899-2.916.899h-4.058c-1.312 0-2.308-.292-2.916-.9-.607-.583-.923-1.53-.923-2.818V.51c0-.267.219-.486.486-.486h2.867c.268 0 .486.22.486.486v7.436c0 .51.195.705.73.705h2.648c.535 0 .729-.195.729-.705V.51Z" clip-rule="evenodd"/></g><defs><clipPath id="a"><path fill="#fff" d="M.29.001h89.42v26H.29z"/></clipPath></defs></svg>
